icons/Neutral_line.svg

<svg width="16" height="16" viewBox="0 0 16 16" fill="currentColor" xmlns="http://www.w3.org/2000/svg">
<g clip-path="url(#clip0_4_609)">
<path d="M15.9747 7.3614C15.802 5.35908 15.0539 3.75722 13.7303 2.49861C13.6728 2.3842 13.5001 2.3842 13.4426 2.49861C13.3275 2.55582 13.3275 2.72745 13.4426 2.78466C14.7086 3.98606 15.3992 5.4735 15.5718 7.41861C15.9171 11.5949 12.8671 15.1991 8.60857 15.5995C4.4076 15.9428 0.724556 12.8535 0.37927 8.67722C0.033985 4.50094 3.08401 0.896755 7.34252 0.49629C9.06895 0.324662 10.5652 0.667918 11.9463 1.58327C12.0614 1.64048 12.1765 1.64048 12.2341 1.52606C12.2916 1.41164 12.2341 1.29722 12.1765 1.24001C10.7378 0.267453 9.1265 -0.133012 7.34252 0.0386163C2.85381 0.439081 -0.368848 4.2721 0.0339854 8.67722C0.379271 12.8535 3.88967 16 8.09064 16H8.72367C13.0973 15.5995 16.3199 11.7665 15.9747 7.3614Z" fill="#3D3D3D"/>
<path fill-rule="evenodd" clip-rule="evenodd" d="M4.01916 7.98886C4.02005 7.87052 4.11738 7.7753 4.23656 7.77618L11.9479 7.83333C12.0671 7.83421 12.163 7.93086 12.1621 8.0492C12.1612 8.16755 12.0639 8.26277 11.9447 8.26189L4.23334 8.20474C4.11416 8.20386 4.01827 8.10721 4.01916 7.98886Z" fill="#3D3D3D"/>
</g>
<defs>
<clipPath id="clip0_4_609">
<rect width="16" height="16" fill="white"/>
</clipPath>
</defs>
</svg>

<svg xmlns="http://www.w3.org/2000/svg" width="16" height="16" fill="currentColor" class="si si-Neutral_line" viewBox="0 0 16 16">
  <g clip-path="url(#a)">
    <path d="M15.975 7.361c-.173-2.002-.921-3.604-2.245-4.862-.057-.115-.23-.115-.287 0a.162.162 0 0 0 0 .286c1.266 1.201 1.956 2.688 2.129 4.634.345 4.176-2.705 7.78-6.963 8.18-4.201.344-7.884-2.745-8.23-6.922C.034 4.501 3.084.897 7.343.497c1.726-.172 3.222.17 4.603 1.086.115.057.23.057.288-.057s0-.229-.057-.286Q10.018-.22 7.343.039C2.853.439-.37 4.272.034 8.677.379 12.854 3.89 16 8.091 16h.633c4.373-.4 7.596-4.233 7.25-8.639"/>
    <path fill-rule="evenodd" d="M4.02 7.989c0-.118.097-.214.217-.213l7.71.057c.12.001.216.098.215.216a.215.215 0 0 1-.217.213l-7.712-.057a.215.215 0 0 1-.214-.216"/>
  </g>
  <defs>
    <clipPath id="a">
      <path d="M0 0h16v16H0z"/>
    </clipPath>
  </defs>
</svg>
